X: 24860
T: Magh Seóla
R: barndance
M: 4/4
K: Gmajor
B2Bc d2 BA|G4 BcdG|e3 d cB AG|B2 BAA2A2|
d2 B2 g2 f>g|e3 dB2 A>B|G3 B AAF G|G8|
Bc/B/ AG d2 d2|e>d ce d2 ga|be gb ag fd|dc Bc A2 A2|
d2 B2 g2 f>g|e3 dB2 A>B|G3 B AAF G|G8||

